packages/icon/src/svg/warning.icon.svg

<svg role="img" aria-label="warning icon" xmlns="http://www.w3.org/2000/svg" viewBox="0 0 24 24"><path d="M2,12 C2,6.48608696 6.48608696,2 12,2 C17.513913,2 22,6.48608696 22,12 C22,17.513913 17.513913,22 12,22 C6.48608696,22 2,17.513913 2,12 Z M4,12 C4,16.4111304 7.58886957,20 12,20 C16.4111304,20 20,16.4111304 20,12 C20,7.58886957 16.4111304,4 12,4 C7.58886957,4 4,7.58886957 4,12 Z M12.5,18 L11.5,18 C11.2238576,18 11,17.7761424 11,17.5 L11,16.5 C11,16.2238576 11.2238576,16 11.5,16 L12.5,16 C12.7761424,16 13,16.2238576 13,16.5 L13,17.5 C13,17.7761424 12.7761424,18 12.5,18 Z M12.5,14 L11.5,14 C11.2238576,14 11,13.7761424 11,13.5 L11,7 C11,6.72385763 11.2238576,6.5 11.5,6.5 L12.5,6.5 C12.7761424,6.5 13,6.72385763 13,7 L13,13.5 C13,13.7761424 12.7761424,14 12.5,14 Z" /></svg>

<svg aria-label="warning icon" viewBox="0 0 24 24"><path fill-rule="evenodd" clip-rule="evenodd" d="M12 2C6.486 2 2 6.486 2 12s4.486 10 10 10 10-4.486 10-10S17.514 2 12 2zm0 2c-4.411 0-8 3.589-8 8s3.589 8 8 8 8-3.589 8-8-3.589-8-8-8zm.5 14h-1a.5.5 0 01-.5-.5v-1a.5.5 0 01.5-.5h1a.5.5 0 01.5.5v1a.5.5 0 01-.5.5zm0-4h-1a.5.5 0 01-.5-.5V7a.5.5 0 01.5-.5h1a.5.5 0 01.5.5v6.5a.5.5 0 01-.5.5z"/></svg>
